X:369
T: ES WARN EINMAL ZWEI MAEDCHEN
N: E0209
O: Europa, Mitteleuropa, Deutschland, Schlesien
R: erzaehlendes Volks - Lied, Mahn -, Moral - Lied, Strafe; Geiz
M: 2/4
L: 1/16
K: F
F2 | c2c2c2d2 | c4A2d2 | c4A2
A2 | c2c2cBB2 | A4z2
A2 | c2c2cBB2 | A4z2
A2 | c2A2c2A2 | c4d2
c2 | B2G2B2G2 | B4c2
A2 | c2c2cBB2 | A4z2
A2 | c2c2cBB2 | A4z2

